src/images/MavenHive-logo_black.svg

<svg height="23" viewBox="0 0 148 23" width="148" xmlns="http://www.w3.org/2000/svg"><g fill="#747c83" fill-rule="evenodd"><g transform="translate(36.967925 7.627551)"><path d="m16.5226415 1.78038686v12.56673994c0 .5263159-.4280813.9470909-.9628586.9470909-.5351017 0-.984479-.420775-.984479-.9470909v-11.95614087l-4.94444724 12.01905947c-.23522852.5262091-.748818.8841723-1.36975211.8841723-.6205017 0-1.13398308-.3579632-1.3697521-.8841723l-4.94401488-12.01905947v11.95614087c0 .5263159-.44926917.9470909-.98447892.9470909-.53520974 0-.96285865-.420775-.96285865-.9470909v-12.56673994c0-.75758723.6205017-1.3892304 1.39093997-1.3892304h.70633417c.57769357 0 1.09160735.37900727 1.3057561.88427907l4.85807431 11.91383907 4.85861485-11.91383907c.2141487-.5052718.727522-.88427907 1.305648-.88427907h.7063341c.7704383 0 1.39094.63164317 1.39094 1.3892304"/><path d="m26.6973277 12.1119722v-1.7668166h-2.3349626c-2.0140109 0-3.2351645.4628394-3.2351645 1.6617811 0 .9042232.5353165 1.682596 2.2707939 1.682596 1.3282819 0 2.5710777-.7572376 3.2993332-1.5775605m1.9498421-3.74381084v5.95254504c0 .5259247-.4498304.9463869-.9855797.9463869-.5356412 0-.9642624-.4204622-.9642624-.9463869v-.5468464c-.7712151.7777323-2.0140108 1.598589-4.0275888 1.598589-1.863923 0-3.4923804-1.17802-3.4923804-3.1554413 0-1.9773145 1.5854979-3.4071422 4.9276824-3.4071422h2.5922868v-.16822758c0-1.87206553-.9426202-2.60848816-2.870712-2.60848816-1.1998363 0-2.0569703.25255485-2.8493947.50500296-.0860272.02092171-.1930472.04184341-.2785334.04184341-.4286211 0-.7929653-.33624167-.7929653-.79929448 0-.35727012.1930472-.65198862.5574996-.79929449 1.006789-.42056895 2.184875-.75691736 3.7059877-.75691736 3.1280362 0 4.4779602 2.08213652 4.4779602 4.14367156"/><path d="m40.8113208 5.31059061c0 .16835346-.0428824.29480561-.106936.44220841l-3.7212618 8.76207578c-.1922686.4212578-.6416155.7793429-1.1759711.7793429h-.2138718c-.5346796 0-.9838104-.3580851-1.1765111-.7793429l-3.7211538-8.76207578c-.0640536-.1474028-.106936-.27385495-.106936-.44220841 0-.52665236.4277437-.96875388.9625313-.96875388.3849693 0 .7486594.2314192.8767665.54770991l3.272239 8.17182326 3.272131-8.17182326c.1281071-.31629071.4919053-.54770991.8768746-.54770991.5341395 0 .9620992.44210152.9620992.96875388"/><path d="m44.2490589 8.91496283h6.3222143c-.1284879-2.18757804-1.800347-3.07087112-3.1719317-3.07087112-1.371693 0-3.0219029.88329308-3.1502826 3.07087112m7.8868016 4.75345107c0 .3362384-.2571924.6099258-.557575.7783653-.9428224.5258129-1.8857531.9256698-3.75029.9256698-3.4934223 0-5.550637-2.0408073-5.550637-5.57429984 0-2.83945367 1.5642626-5.57365936 5.121983-5.57365936 3.3003115 0 5.1006585 2.50289499 5.1006585 5.30018542 0 .52581288-.3856804.94659128-.9859043.94659128h-7.2650368c.214327 1.8929691 1.4357746 3.1127141 3.75029 3.1127141 1.2861787 0 2.1001884-.2523389 2.8934149-.6518756.128488-.062978.2356515-.0838995.3857886-.0838995.4498703 0 .8573081.3361317.8573081.8202084"/><path d="m64.8622642 8.35704553v5.98846067c0 .5272165-.4484958.9487115-.9826094.9487115-.5348695 0-.9625275-.421495-.9625275-.9487115v-5.77755266c0-1.60251565-.6836483-2.57230728-2.3508776-2.57230728-1.5390723 0-2.6505945.96979163-3.5056946 2.02411767v6.32574227c0 .5272165-.4488196.9487115-.9833651.9487115-.5344376 0-.9620957-.421495-.9620957-.9487115v-9.04571727c0-.54818962.4276581-.96979163.9620957-.96979163.5345455 0 .9833651.42160201.9833651.96979163v.86439113c.8977472-.96979163 2.073078-1.93969026 3.9757838-1.93969026 2.4366035 0 3.8259253 1.87644996 3.8259253 4.13255573"/><path d="m80.2754717 1.35929836v12.98782164c0 .5264265-.4496543.9470977-.9844834.9470977-.5355858 0-.963622-.4206712-.963622-.9470977v-5.59926352h-8.1103143v5.59926352c0 .5264265-.4497623.9470977-.9844834.9470977-.534721 0-.9627573-.4206712-.9627573-.9470977v-12.98782164c0-.52631967.4280363-.9681419.9627573-.9681419.5347211 0 .9844834.44182223.9844834.9681419v5.59937037h8.1103143v-5.59937037c0-.52631967.4280362-.9681419.963622-.9681419.5348291 0 .9844834.44182223.9844834.9681419"/><path d="m85.8294423 5.28137617v9.02696943c0 .5262368-.4256163.9467564-.9789175.9467564-.5325578 0-.9581742-.4205196-.9581742-.9467564v-9.02696943c0-.54705993.4256164-.96779312.9581742-.96779312.5533012 0 .9789175.42073319.9789175.96779312m.1913124-4.1243599c0 .58902647-.4894588 1.07318999-1.0847842 1.07318999h-.1283298c-.5955404 0-1.0849992-.48416352-1.0849992-1.07318999v-.08436021c0-.58891968.4894588-1.07265606 1.0849992-1.07265606h.1283298c.5953254 0 1.0847842.48373638 1.0847842 1.07265606"/><path d="m98.3830189 5.31059061c0 .16835346-.0432055.29480561-.1073657.44220841l-3.7209672 8.76207578c-.1922646.4212578-.64171.7793429-1.1760542.7793429h-.2138673c-.5342363 0-.9835737-.3580851-1.1760542-.7793429l-3.7210752-8.76207578c-.0640522-.1474028-.1072577-.27385495-.1072577-.44220841 0-.52665236.4277346-.96875388.9629429-.96875388.3843131 0 .7481036.2314192.8762079.54770991l3.27271 8.17182326 3.2716298-8.17182326c.1281044-.31629071.4917868-.54770991.8764239-.54770991.5352084 0 .962727.44210152.962727.96875388"/><path d="m101.820674 8.91496283h6.321946c-.128374-2.18757804-1.799729-3.07087112-3.170931-3.07087112-1.372068 0-3.022641.88329308-3.151015 3.07087112m7.886467 4.75345107c0 .3362384-.256748.6099258-.557118.7783653-.943324.5258129-1.885674.9256698-3.750564.9256698-3.49295 0-5.5504024-2.0408073-5.5504024-5.57429984 0-2.83945367 1.5645214-5.57365936 5.1226324-5.57365936 3.300171 0 5.100009 2.50289499 5.100009 5.30018542 0 .52581288-.386097.94659128-.985862.94659128h-7.265162c.214209 1.8929691 1.436363 3.1127141 3.750564 3.1127141 1.286016 0 2.100207-.2523389 2.893292-.6518756.128482-.062978.2351-.0838995.385448-.0838995.450284 0 .857163.3361317.857163.8202084"/></g><g transform="translate(.158491)"><path d="m19.2347697 15.0267503c.5241599-.6091391.9522985-1.8689931.9522985-2.79712v-2.76081584c0-.92925648.8584703-1.68835061 1.9040247-1.68835061l1.9152766-.00062756c1.0498454 0 1.9083793.75972169 1.9083793 1.68897817v3.44268894c0 .9292565-.8585339 1.6882565-1.9083793 1.6882565h-1.0672316c-1.0467623.0016003-2.3217062.4936685-2.8305777 1.0934256-.505852.6001965-.9224209 1.8537749-.9224209 2.7803957v2.7942333c0 .9291623-.8585339 1.6879113-1.9072351 1.6879113h-1.9145773c-1.0471437 0-1.9058365-.758749-1.9058365-1.6879113v-3.4422497c0-.9302919.8586928-1.6892606 1.9058365-1.6892606h1.0135792c1.0482244 0 2.3339751-.4992223 2.8568636-1.1095539"/><path d="m24.1111315.010794c1.0478112 0 1.9073304.75834106 1.9073304 1.6882251v3.4419045c0 .92978991-.8595192 1.68926057-1.9073304 1.68926057h-1.9155308c-1.0499089 0-1.9088878-.75947066-1.9088878-1.68926057v-3.4419045c0-.92988404.8589789-1.6882251 1.9088878-1.6882251"/><path d="m25.954257 15.7075252c.5233653.6124339.9504868 1.8699973.9504868 2.7991597v2.7594038c0 .9308881.8605363 1.6878799 1.9070761 1.6878799h1.9157851c1.0480972 0 1.9055822-.7569918 1.9055822-1.6878799v-3.4411515c0-.9301664-.857485-1.688633-1.9055822-1.688633h-1.0681851c-1.0465716 0-2.3211977-.4919113-2.8303553-1.092547-.5060744-.601734-.9237559-1.8523629-.9237559-2.7815253v-2.79338606c0-.92925648-.8564678-1.68897817-1.9063768-1.68897817l-1.9154673.00059618c-1.0468258 0-1.906345.75912551-1.906345 1.68838199v3.44268896c0 .9292565.8595192 1.6898567 1.906345 1.6898567l1.0139606-.0016316c1.050354 0 2.3328945.4988458 2.8568318 1.1077653"/><path d="m5.78727675 15.0450123c.52317455-.6086685.95121778-1.8683343.95121778-2.797779v-2.76003139c0-.92916235.85831139-1.68835061 1.90583652-1.68835061l1.91610295-.00191406c1.0483197 0 1.9059319.76110232 1.9059319 1.69026467v3.44293999c0 .9290054-.8576122 1.6883506-1.9059319 1.6883506h-1.06802621c-1.04835152.0010041-2.3222148.4930723-2.83022809 1.0934256-.50772723.5999769-.92432801 1.8523943-.92432801 2.7798936v2.7939195c0 .9292565-.85646788 1.6882251-1.90558224 1.6882251h-1.91476799c-1.04847866 0-1.90672648-.7589686-1.90672648-1.6882251v-3.4421869c0-.929382.85824782-1.6888526 1.90672648-1.6888526h1.01307062c1.04733442 0 2.33267194-.4988459 2.85670467-1.1096794"/><path d="m12.5072409 15.7260068c.5241916.6111474.9512495 1.8691187.9512495 2.7996617v2.7594038c0 .929884.858661 1.68788 1.9058365 1.68788h1.9145455c1.0487012 0 1.9072351-.757996 1.9072351-1.68788v-3.4426889c0-.9297586-.8585339-1.6877231-1.9072351-1.6877231h-1.0665959c-1.0479701 0-2.3222465-.4921937-2.8294334-1.0927981-.5085219-.6018595-.9238513-1.8527708-.9238513-2.7810232v-2.79363709c0-.92916235-.8581524-1.69026467-1.9071397-1.69026467l-1.91489508.00188268c-1.04797011 0-1.90593187.75921964-1.90593187 1.68838199v3.44290859c0 .9290055.85796176 1.6893861 1.90593187 1.6893861l1.01319775-.0010041c1.04898723 0 2.33407043.4984693 2.85708613 1.1075143"/></g></g></svg>

<?xml version="1.0" encoding="UTF-8"?>
<svg width="148px" height="23px" viewBox="0 0 148 23" version="1.1" xmlns="http://www.w3.org/2000/svg" xmlns:xlink="http://www.w3.org/1999/xlink">
    <!-- Generator: Sketch 46.2 (44496) - http://www.bohemiancoding.com/sketch -->
    <title>Logo_black</title>
    <desc>Created with Sketch.</desc>
    <defs></defs>
    <g id="Page-1" stroke="none" stroke-width="1" fill="none" fill-rule="evenodd">
        <g id="MH-Home-2" transform="translate(-53.000000, -3354.000000)" fill="#747C83">
            <g id="Footer" transform="translate(0.000000, 3328.000000)">
                <g id="Logo_black" style="mix-blend-mode: luminosity;" transform="translate(53.000000, 26.000000)">
                    <g id="black" transform="translate(0.158491, 0.000000)">
                        <g id="Text" transform="translate(36.809434, 7.627551)">
                            <path d="M16.5226415,1.78038686 L16.5226415,14.3471268 C16.5226415,14.8734427 16.0945602,15.2942177 15.5597829,15.2942177 C15.0246812,15.2942177 14.5753039,14.8734427 14.5753039,14.3471268 L14.5753039,2.39098593 L9.63085666,14.4100454 C9.39562814,14.9362545 8.88203866,15.2942177 8.26110455,15.2942177 C7.64060285,15.2942177 7.12712147,14.9362545 6.89135245,14.4100454 L1.94733757,2.39098593 L1.94733757,14.3471268 C1.94733757,14.8734427 1.4980684,15.2942177 0.962858653,15.2942177 C0.427648909,15.2942177 0,14.8734427 0,14.3471268 L0,1.78038686 C0,1.02279963 0.620501703,0.391156463 1.39093997,0.391156463 L2.09727414,0.391156463 C2.67496771,0.391156463 3.18888149,0.770163725 3.40303024,1.27543553 L8.26110455,13.1892746 L13.1197194,1.27543553 C13.3338681,0.770163725 13.8472414,0.391156463 14.4253674,0.391156463 L15.1317015,0.391156463 C15.9021398,0.391156463 16.5226415,1.02279963 16.5226415,1.78038686" id="Fill-8"></path>
                            <path d="M26.6973277,12.1119722 L26.6973277,10.3451556 L24.3623651,10.3451556 C22.3483542,10.3451556 21.1272006,10.807995 21.1272006,12.0069367 C21.1272006,12.9111599 21.6625171,13.6895327 23.3979945,13.6895327 C24.7262764,13.6895327 25.9690722,12.9322951 26.6973277,12.1119722 M28.6471698,8.36816136 L28.6471698,14.3207064 C28.6471698,14.8466311 28.1973394,15.2670933 27.6615901,15.2670933 C27.1259489,15.2670933 26.6973277,14.8466311 26.6973277,14.3207064 L26.6973277,13.77386 C25.9261126,14.5515923 24.6833169,15.372449 22.6697389,15.372449 C20.8058159,15.372449 19.1773585,14.194429 19.1773585,12.2170077 C19.1773585,10.2396932 20.7628564,8.8098655 24.1050409,8.8098655 L26.6973277,8.8098655 L26.6973277,8.64163792 C26.6973277,6.76957239 25.7547075,6.03314976 23.8266157,6.03314976 C22.6267794,6.03314976 21.7696454,6.28570461 20.977221,6.53815272 C20.8911938,6.55907443 20.7841738,6.57999613 20.6986876,6.57999613 C20.2700665,6.57999613 19.9057223,6.24375446 19.9057223,5.78070165 C19.9057223,5.42343153 20.0987695,5.12871303 20.4632219,4.98140716 C21.4700109,4.56083821 22.6480969,4.2244898 24.1692096,4.2244898 C27.2972458,4.2244898 28.6471698,6.30662632 28.6471698,8.36816136" id="Fill-9"></path>
                            <path d="M40.8113208,5.31059061 C40.8113208,5.47894407 40.7684384,5.60539622 40.7043848,5.75279902 L36.983123,14.5148748 C36.7908544,14.9361326 36.3415075,15.2942177 35.8071519,15.2942177 L35.5932801,15.2942177 C35.0586005,15.2942177 34.6094697,14.9361326 34.416769,14.5148748 L30.6956152,5.75279902 C30.6315616,5.60539622 30.5886792,5.47894407 30.5886792,5.31059061 C30.5886792,4.78393825 31.0164229,4.34183673 31.5512105,4.34183673 C31.9361798,4.34183673 32.2998699,4.57325593 32.427977,4.88954664 L35.700216,13.0613699 L38.972347,4.88954664 C39.1004541,4.57325593 39.4642523,4.34183673 39.8492216,4.34183673 C40.3833611,4.34183673 40.8113208,4.78393825 40.8113208,5.31059061" id="Fill-10"></path>
                            <path d="M44.2490589,8.91496283 L50.5712732,8.91496283 C50.4427853,6.72738479 48.7709262,5.84409171 47.3993415,5.84409171 C46.0276485,5.84409171 44.3774386,6.72738479 44.2490589,8.91496283 M52.1358605,13.6684139 C52.1358605,14.0046523 51.8786681,14.2783397 51.5782855,14.4467792 C50.6354631,14.9725921 49.6925324,15.372449 47.8279955,15.372449 C44.3345732,15.372449 42.2773585,13.3316417 42.2773585,9.79814916 C42.2773585,6.95869549 43.8416211,4.2244898 47.3993415,4.2244898 C50.699653,4.2244898 52.5,6.72738479 52.5,9.52467522 C52.5,10.0504881 52.1143196,10.4712665 51.5140957,10.4712665 L44.2490589,10.4712665 C44.4633859,12.3642356 45.6848335,13.5839806 47.9993489,13.5839806 C49.2855276,13.5839806 50.0995373,13.3316417 50.8927638,12.932105 C51.0212518,12.869127 51.1284153,12.8482055 51.2785524,12.8482055 C51.7284227,12.8482055 52.1358605,13.1843372 52.1358605,13.6684139" id="Fill-11"></path>
                            <path d="M64.8622642,8.35704553 L64.8622642,14.3455062 C64.8622642,14.8727227 64.4137684,15.2942177 63.8796548,15.2942177 C63.3447853,15.2942177 62.9171273,14.8727227 62.9171273,14.3455062 L62.9171273,8.56795354 C62.9171273,6.96543789 62.233479,5.99564626 60.5662497,5.99564626 C59.0271774,5.99564626 57.9156552,6.96543789 57.0605551,8.01976393 L57.0605551,14.3455062 C57.0605551,14.8727227 56.6117355,15.2942177 56.07719,15.2942177 C55.5427524,15.2942177 55.1150943,14.8727227 55.1150943,14.3455062 L55.1150943,5.29978893 C55.1150943,4.75159931 55.5427524,4.3299973 56.07719,4.3299973 C56.6117355,4.3299973 57.0605551,4.75159931 57.0605551,5.29978893 L57.0605551,6.16418006 C57.9583023,5.19438843 59.1336331,4.2244898 61.0363389,4.2244898 C63.4729424,4.2244898 64.8622642,6.10093976 64.8622642,8.35704553" id="Fill-12"></path>
                            <path d="M80.2754717,1.35929836 L80.2754717,14.34712 C80.2754717,14.8735465 79.8258174,15.2942177 79.2909883,15.2942177 C78.7554025,15.2942177 78.3273663,14.8735465 78.3273663,14.34712 L78.3273663,8.74785648 L70.217052,8.74785648 L70.217052,14.34712 C70.217052,14.8735465 69.7672897,15.2942177 69.2325686,15.2942177 C68.6978476,15.2942177 68.2698113,14.8735465 68.2698113,14.34712 L68.2698113,1.35929836 C68.2698113,0.832978693 68.6978476,0.391156463 69.2325686,0.391156463 C69.7672897,0.391156463 70.217052,0.832978693 70.217052,1.35929836 L70.217052,6.95866873 L78.3273663,6.95866873 L78.3273663,1.35929836 C78.3273663,0.832978693 78.7554025,0.391156463 79.2909883,0.391156463 C79.8258174,0.391156463 80.2754717,0.832978693 80.2754717,1.35929836" id="Fill-13"></path>
                            <path d="M85.8294423,5.28137617 L85.8294423,14.3083456 C85.8294423,14.8345824 85.403826,15.255102 84.8505248,15.255102 C84.317967,15.255102 83.8923506,14.8345824 83.8923506,14.3083456 L83.8923506,5.28137617 C83.8923506,4.73431624 84.317967,4.31358305 84.8505248,4.31358305 C85.403826,4.31358305 85.8294423,4.73431624 85.8294423,5.28137617 M86.0207547,1.15701627 C86.0207547,1.74604274 85.5312959,2.23020626 84.9359705,2.23020626 L84.8076407,2.23020626 C84.2121003,2.23020626 83.7226415,1.74604274 83.7226415,1.15701627 L83.7226415,1.07265606 C83.7226415,0.483736383 84.2121003,0 84.8076407,0 L84.9359705,0 C85.5312959,0 86.0207547,0.483736383 86.0207547,1.07265606" id="Fill-14"></path>
                            <path d="M98.3830189,5.31059061 C98.3830189,5.47894407 98.3398134,5.60539622 98.2756532,5.75279902 L94.554686,14.5148748 C94.3624214,14.9361326 93.912976,15.2942177 93.3786318,15.2942177 L93.1647645,15.2942177 C92.6305282,15.2942177 92.1811908,14.9361326 91.9887103,14.5148748 L88.2676351,5.75279902 C88.2035829,5.60539622 88.1603774,5.47894407 88.1603774,5.31059061 C88.1603774,4.78393825 88.588112,4.34183673 89.1233203,4.34183673 C89.5076334,4.34183673 89.8714239,4.57325593 89.9995282,4.88954664 L93.2722382,13.0613699 L96.543868,4.88954664 C96.6719724,4.57325593 97.0356548,4.34183673 97.4202919,4.34183673 C97.9555003,4.34183673 98.3830189,4.78393825 98.3830189,5.31059061" id="Fill-15"></path>
                            <path d="M101.820674,8.91496283 L108.14262,8.91496283 C108.014246,6.72738479 106.342891,5.84409171 104.971689,5.84409171 C103.599621,5.84409171 101.949048,6.72738479 101.820674,8.91496283 M109.707141,13.6684139 C109.707141,14.0046523 109.450393,14.2783397 109.150023,14.4467792 C108.206699,14.9725921 107.264349,15.372449 105.399459,15.372449 C101.906509,15.372449 99.8490566,13.3316417 99.8490566,9.79814916 C99.8490566,6.95869549 101.413578,4.2244898 104.971689,4.2244898 C108.27186,4.2244898 110.071698,6.72738479 110.071698,9.52467522 C110.071698,10.0504881 109.685601,10.4712665 109.085836,10.4712665 L101.820674,10.4712665 C102.034883,12.3642356 103.257037,13.5839806 105.571238,13.5839806 C106.857254,13.5839806 107.671445,13.3316417 108.46453,12.932105 C108.593012,12.869127 108.69963,12.8482055 108.849978,12.8482055 C109.300262,12.8482055 109.707141,13.1843372 109.707141,13.6684139" id="Fill-16"></path>
                        </g>
                        <g id="Symbol">
                            <path d="M19.2347697,15.0267503 C19.7589296,14.4176112 20.1870682,13.1577572 20.1870682,12.2296303 L20.1870682,9.46881446 C20.1870682,8.53955798 21.0455385,7.78046385 22.0910929,7.78046385 L24.0063695,7.77983629 C25.0562149,7.77983629 25.9147488,8.53955798 25.9147488,9.46881446 L25.9147488,12.9115034 C25.9147488,13.8407599 25.0562149,14.5997599 24.0063695,14.5997599 L22.9391379,14.5997599 C21.8923756,14.6013602 20.6174317,15.0934284 20.1085602,15.6931855 C19.6027082,16.293382 19.1861393,17.5469604 19.1861393,18.4735812 L19.1861393,21.2678145 C19.1861393,22.1969768 18.3276054,22.9557258 17.2789042,22.9557258 L15.3643269,22.9557258 C14.3171832,22.9557258 13.4584904,22.1969768 13.4584904,21.2678145 L13.4584904,17.8255648 C13.4584904,16.8952729 14.3171832,16.1363042 15.3643269,16.1363042 L16.3779061,16.1363042 C17.4261305,16.1363042 18.7118812,15.6370819 19.2347697,15.0267503" id="Fill-3"></path>
                            <path d="M24.1111315,0.0107939973 C25.1589427,0.0107939973 26.0184619,0.769135061 26.0184619,1.6990191 L26.0184619,5.1409236 C26.0184619,6.07071351 25.1589427,6.83018417 24.1111315,6.83018417 L22.1956007,6.83018417 C21.1456918,6.83018417 20.2867129,6.07071351 20.2867129,5.1409236 L20.2867129,1.6990191 C20.2867129,0.769135061 21.1456918,0.0107939973 22.1956007,0.0107939973" id="Fill-4"></path>
                            <path d="M25.954257,15.7075252 C26.4776223,16.3199591 26.9047438,17.5775225 26.9047438,18.5066849 L26.9047438,21.2660887 C26.9047438,22.1969768 27.7652801,22.9539686 28.8118199,22.9539686 L30.727605,22.9539686 C31.7757022,22.9539686 32.6331872,22.1969768 32.6331872,21.2660887 L32.6331872,17.8249372 C32.6331872,16.8947708 31.7757022,16.1363042 30.727605,16.1363042 L29.6594199,16.1363042 C28.6128483,16.1363042 27.3382222,15.6443929 26.8290646,15.0437572 C26.3229902,14.4420232 25.9053087,13.1913943 25.9053087,12.2622319 L25.9053087,9.46884584 C25.9053087,8.53958936 25.0488409,7.77986767 23.9989319,7.77986767 L22.0834646,7.78046385 C21.0366388,7.78046385 20.1771196,8.53958936 20.1771196,9.46884584 L20.1771196,12.9115348 C20.1771196,13.8407913 21.0366388,14.6013915 22.0834646,14.6013915 L23.0974252,14.5997599 C24.1477792,14.5997599 25.4303197,15.0986057 25.954257,15.7075252" id="Fill-5"></path>
                            <path d="M5.78727675,15.0450123 C6.3104513,14.4363438 6.73849453,13.176678 6.73849453,12.2472333 L6.73849453,9.48720191 C6.73849453,8.55803956 7.59680592,7.7988513 8.64433105,7.7988513 L10.560434,7.79693724 C11.6087537,7.79693724 12.4663659,8.55803956 12.4663659,9.48720191 L12.4663659,12.9301419 C12.4663659,13.8591473 11.6087537,14.6184925 10.560434,14.6184925 L9.49240779,14.6184925 C8.44405627,14.6194966 7.17019299,15.1115648 6.6621797,15.7119181 C6.15445247,16.311895 5.73785169,17.5643124 5.73785169,18.4918117 L5.73785169,21.2857312 C5.73785169,22.2149877 4.88138381,22.9739563 3.83226945,22.9739563 L1.91750146,22.9739563 C0.869022801,22.9739563 0.0107749801,22.2149877 0.0107749801,21.2857312 L0.0107749801,17.8435443 C0.0107749801,16.9141623 0.869022801,16.1546917 1.91750146,16.1546917 L2.93057208,16.1546917 C3.9779065,16.1546917 5.26324402,15.6558458 5.78727675,15.0450123" id="Fill-6"></path>
                            <path d="M12.5072409,15.7260068 C13.0314325,16.3371542 13.4584904,17.5951255 13.4584904,18.5256685 L13.4584904,21.2850723 C13.4584904,22.2149563 14.3171514,22.9729523 15.3643269,22.9729523 L17.2788724,22.9729523 C18.3275736,22.9729523 19.1861075,22.2149563 19.1861075,21.2850723 L19.1861075,17.8423834 C19.1861075,16.9126248 18.3275736,16.1546603 17.2788724,16.1546603 L16.2122765,16.1546603 C15.1643064,16.1546603 13.89003,15.6624666 13.3828431,15.0618622 C12.8743212,14.4600027 12.4589918,13.2090914 12.4589918,12.280839 L12.4589918,9.48720191 C12.4589918,8.55803956 11.6008394,7.79693724 10.5518521,7.79693724 L8.63695702,7.79881992 C7.58898691,7.79881992 6.73102515,8.55803956 6.73102515,9.48720191 L6.73102515,12.9301105 C6.73102515,13.859116 7.58898691,14.6194966 8.63695702,14.6194966 L9.65015477,14.6184925 C10.699142,14.6184925 11.9842252,15.1169618 12.5072409,15.7260068" id="Fill-7"></path>
                        </g>
                    </g>
                </g>
            </g>
        </g>
    </g>
</svg>
